src/shared/icons/film.svg

<!-- Generated by IcoMoon.io -->
<svg version="1.1" xmlns="http://www.w3.org/2000/svg" width="50" height="50" viewBox="0 0 32 32">
<title></title>
<path d="M29.12 6.784h-11.648c0-1.472-1.28-2.624-2.88-2.624h-1.472v-1.984c0-0.384-0.32-0.64-0.704-0.64h-7.296c-0.384 0-0.704 0.32-0.704 0.64v1.984h-1.536c-1.6 0-2.88 1.216-2.88 2.624v21.184c0 1.472 1.28 2.624 2.88 2.624h11.648c1.6 0 2.88-1.216 2.88-2.624h5.824c1.6 0 2.88-1.216 2.88-2.624v-5.312c0-1.472 1.28-2.624 2.88-2.624s2.88-1.216 2.88-2.624v-5.312c0.128-1.472-1.152-2.688-2.752-2.688zM5.824 2.816h5.824v1.344h-5.824v-1.344zM16 28.032c0 0.704-0.64 1.344-1.472 1.344h-11.648c-0.832 0-1.472-0.576-1.472-1.344v-21.248c0-0.704 0.64-1.344 1.472-1.344h11.648c0.832 0 1.472 0.576 1.472 1.344v21.248zM29.824 10.752h0.704v3.968c0 0.704-0.64 1.344-1.472 1.344-2.432 0-4.352 1.792-4.352 3.968v3.968h-1.92c-0.384 0-0.704 0.32-0.704 0.64s0.32 0.64 0.704 0.64h1.92c0 0.704-0.64 1.344-1.472 1.344h-5.824v-1.344h0.704c0.384 0 0.704-0.32 0.704-0.64s-0.32-0.64-0.704-0.64h-0.704v-13.248h0.704c0.384 0 0.704-0.32 0.704-0.64 0-0.384-0.32-0.64-0.704-0.64h-0.704v-1.344h11.648c0.832 0 1.472 0.576 1.472 1.344h-0.704c-0.384 0-0.704 0.32-0.704 0.64 0 0.384 0.32 0.64 0.704 0.64zM25.152 9.472h-2.304c-0.384 0-0.704 0.32-0.704 0.64 0 0.384 0.32 0.64 0.704 0.64h2.304c0.384 0 0.704-0.32 0.704-0.64 0.064-0.384-0.32-0.64-0.704-0.64z"></path>
</svg>

<svg xmlns="http://www.w3.org/2000/svg" width="50" height="50" viewBox="0 0 32 32"><path d="M29.12 6.784H17.472c0-1.472-1.28-2.624-2.88-2.624H13.12V2.176c0-.384-.32-.64-.704-.64H5.12c-.384 0-.704.32-.704.64V4.16H2.88C1.28 4.16 0 5.376 0 6.784v21.184c0 1.472 1.28 2.624 2.88 2.624h11.648c1.6 0 2.88-1.216 2.88-2.624h5.824c1.6 0 2.88-1.216 2.88-2.624v-5.312c0-1.472 1.28-2.624 2.88-2.624s2.88-1.216 2.88-2.624V9.472C32 8 30.72 6.784 29.12 6.784zM5.824 2.816h5.824V4.16H5.824V2.816zM16 28.032c0 .704-.64 1.344-1.472 1.344H2.88c-.832 0-1.472-.576-1.472-1.344V6.784c0-.704.64-1.344 1.472-1.344h11.648c.832 0 1.472.576 1.472 1.344v21.248zm13.824-17.28h.704v3.968c0 .704-.64 1.344-1.472 1.344-2.432 0-4.352 1.792-4.352 3.968V24h-1.92c-.384 0-.704.32-.704.64s.32.64.704.64h1.92c0 .704-.64 1.344-1.472 1.344h-5.824V25.28h.704c.384 0 .704-.32.704-.64s-.32-.64-.704-.64h-.704V10.752h.704c.384 0 .704-.32.704-.64 0-.384-.32-.64-.704-.64h-.704V8.128h11.648c.832 0 1.472.576 1.472 1.344h-.704c-.384 0-.704.32-.704.64 0 .384.32.64.704.64zm-4.672-1.28h-2.304c-.384 0-.704.32-.704.64 0 .384.32.64.704.64h2.304c.384 0 .704-.32.704-.64.064-.384-.32-.64-.704-.64z"/></svg>
